X: 1
P: Lango Lee
C: Gow Collection
C: arr. T. Traub 4-27-2003
M: 6/8
R: jig
K: A
L: 1/8
|: "A"A3 c3|"Bm"B>AB "D"cAF|"A"E>FA A2 f|"D"edc "E"B2 A|"A"A3 c3|"Bm"B>AB "D"cAF|"A"E>FA A2 f|"D"edc "E"B3 :|
|: "A"c>de ef=g|"D"f>ed "A"cBA|"A"c>de efg|"E"g3 "A"a2 A|"A"Ace agf|"Bm"edc "E"B2 A|"A"AEF "Bm"AEF|"D"Adc "E"B2 A :|
